X:389
T:Shore's Trumpet Tune. (p)1698.PLFD.389
M:4/4
L:1/8
Q:1/2=100
S:Playford, Dancing Master,9th Ed,extra pages(9C),1698.
O:England
H:1698
Z:Chris Partington
K:D
F2FB AFED|d2df ecBA|F2FB AFED|a2f>ed4:|
|:efeAe2e2|efeAe2e2|abada2a2|abad"^DC"a2a2:|
